!!!COM:	Bach, Johann Sebastian
!!!CDT:	1685/02/21/-1750/07/28/
!!!OTL@@DE:	Wenn mein St&uuml;ndlein vorhanden ist
!!!SCT:	BWV 429
!!!PC#:	52
!!!AGN:	chorale
**harm	**kern	**kern	**kern	**kern
*	*ICvox	*ICvox	*ICvox	*ICvox
*	*Ibass	*Itenor	*Ialto	*Isoprn
*	*I"Bass	*I"Tenor	*I"Alto	*I"Soprano
*	*	*oclefC4	*oclefC3	*oclefC1
*	*clefF4	*clefGv2	*clefG2	*clefG2
*k[f#c#g#]	*k[f#c#g#]	*k[f#c#g#]	*k[f#c#g#]	*k[f#c#g#]
*A:	*A:	*A:	*A:	*A:
*M4/4	*M4/4	*M4/4	*M4/4	*M4/4
*met(c)	*met(c)	*met(c)	*met(c)	*met(c)
*MM100	*MM100	*MM100	*MM100	*MM100
I	4A	4c#	4e	4a
=1	=1	=1	=1	=1
V6	4G#	4B	4e	4e
vi7	4F#	4A	4e	4f#
V	8EL	8BL	8eL	8g#L
V2	8DnXJ	8BJ	8eJ	8g#J
I6	4C#	4c#	4e	4a
=2	=2	=2	=2	=2
viio6	4BB	4d	4g#	4b
f#:V65	4EE#	4c#	4g#	4b
i;	4FF#;	4c#;	4f#;	4a;
i	4F#	4f#	4a	4cc#
=3	=3	=3	=3	=3
A:V6	4G#	4e	4b	4ee
V	4E	4B	4g#	4ee
I	4A	4A	4e	8cc#L
I6	4C#	4A	4e	4ee
=4	=4	=4	=4	=4
ii65	4BB	4A	4f#	4dd
V7	4E	4G#	4e	4dd
I;	4AA;	4A;	4e;	4cc#;
I	4AA	4A	4e	4cc#
=5	=5	=5	=5	=5
viio6	4BB	4G#	4b	4dd
I6	4C#	4A	4e	4cc#
V7	4E	4G#	4d	4b
vi	8F#L	8f#L	8c#L	8aL
V6	8G#J	8eJ	8BJ	8bJ
=6	=6	=6	=6	=6
I	4A	4e	4A	4cc#
V7/IV	4AA	4e	4g	4cc#
IV;	4D;	4d;	4f#;	4a;
I	4A	4e	4a	4cc#
=7	=7	=7	=7	=7
iii	4c#	4e	4g#	4ee
V6	4G#	4e	4b	4ee
I	4A	4e	4a	4cc#
b:V65	4A#	8c#L	4f#	4ee
=8	=8	=8	=8	=8
i	4B	4f#	4b	4dd
viio43/V	4BB	4e#	4b	4dd
V;	4F#;	4f#;	4a#;	4cc#;
f#:V65	4E#X	4B	4g#	4cc#
=9	=9	=9	=9	=9
VI6	8F#L	8AnXL	8f#L	8ddL
A:vii%7	8G#J	8BJ	8f#J	8ddJ
I	4A	4c#	4e	4cc#
ii6	8DL	8F#L	8dL	8bL
V7	8EnXJ	8G#J	8dJ	8bJ
vi	4F#	4A	4c#	4a
=10	=10	=10	=10	=10
f#:V6	4E#	4G#	4c#	4cc#
V6	4E#	4G#	4c#	4cc#
i;	4F#;	4F#;	4c#;	4a;
E:I	4E	4G#	4e	4b
=11	=11	=11	=11	=11
IV	4A	4A	4e	4cc#
ii	4F#	4A	4f#	4cc#
V6	4D#	4B	4f#	4f#
I	4E	4B	4e	4g#
=12	=12	=12	=12	=12
IV6	4C#	4A	4e	4a
V7	4BB	4A	4d#	4f#
I;	4E;	4G#;	4B;	4e;
vi	4C#	4G#	4c#	4e
=13	=13	=13	=13	=13
ii	8F#L	8F#L	8c#L	8aL
A:IV6	8F#J	8f#J	8dnXJ	8aJ
vii%7	8G#L	8f#L	8dL	8bL
V6	8G#J	8eJ	8eJ	8bJ
I	4.A	4.c#	4.e	4.cc#
V2/IV	8G	8e	8a	8cc#
=14	=14	=14	=14	=14
IV6	4F#	4A	4a	4dd
IV7	4D	f#	4a	4cc#
V(54)	4E	4B	4a	4b
V7	4E	4d	4g#	4b
=15	=15	=15	=15	=15
I;	2.AA;	2.c#;	2.e;	2.a;
==	==	==	==	==
*-	*-	*-	*-	*-
!!!YOR1: 371 vierstimmige Choralges&auml;nge von Johann Sebastian Bach, 
!!!YOR2: 4th ed. by Alfred D&ouml;rffel (Leipzig: Breitkopf und H&auml;rtel, 
!!!YOR2: c.1875). 178 pp. Plate "V.A.10".  reprint: J.S. Bach, 371 Four-Part 
!!!YOR4: Chorales (New York: Associated Music Publishers, Inc., c.1940).
!!!SMS: B&H, 4th ed, Alfred D&ouml;rffel, c.1875, plate V.A.10
!!!EED:  Craig Stuart Sapp
!!!EEV:  2009/05/22
